svgs/sharp-regular/square-4.svg

<svg xmlns="http://www.w3.org/2000/svg" viewBox="0 0 448 512"><!--! Font Awesome Pro 6.6.0 by @fontawesome - https://fontawesome.com License - https://fontawesome.com/license (Commercial License) Copyright 2024 Fonticons, Inc. --><path d="M400 80l0 352L48 432 48 80l352 0zM48 32L0 32 0 80 0 432l0 48 48 0 352 0 48 0 0-48 0-352 0-48-48 0L48 32zM288 192l-48 0 0 24 0 56-64.4 0 40-144-49.8 0L120.9 289.6 112.4 320l31.6 0 96 0 0 40 0 24 48 0 0-24 0-40 8 0 24 0 0-48-24 0-8 0 0-56 0-24z"/></svg>

<svg xmlns="http://www.w3.org/2000/svg" viewBox="0 0 448 512"><!--! Font Awesome Pro 6.4.0 by @fontawesome - https://fontawesome.com License - https://fontawesome.com/license (Commercial License) Copyright 2023 Fonticons, Inc. --><path d="M400 80V432H48V80H400zM48 32H0V80 432v48H48 400h48V432 80 32H400 48zM288 192H240v24 56H175.6l40-144H165.8L120.9 289.6 112.4 320H144h96v40 24h48V360 320h8 24V272H296h-8V216 192z"/></svg>
